!!!OTL: Ansingelied zum Neujahre
!!!ARE: Europa, Mitteleuropa, Deutschland
!!!SCT: A0530A
!!!YEM: Copyright 1995, estate of Helmut Schaffrath.
**kern
*ICvox
*Ivox
*M4/1
*k[f#]
*G:
{2g
=1
1g
1g
1a
1g
=2
1cc
1dd
1cc
2r}
{2b
=3
1dd
1ee
1dd
1b
=4
1cc
1a
1g
2r}
{2g
=5
1cc
1b
1dd
1a
=6
1g
1e
1d
2r}
{2d
=7
1a
1a
1a
1b
=8
1cc
1a
1g
1a
=9
1f#
1g
0a
=10
[0g
0g]}
==
!!!AGN: Romanze, Ballade, Lied, religioeses Lied
!! Baseler hs. Tenor 1544 - 1574.
!!!ONB: ESAC (Essen Associative Code) Database: ALTDEU
!!!AMT: simple quadruple
!!!AIN: vox
!!!EED: Helmut Schaffrath
!!!EEV: 1.0
*-
